icons/Transformator.svg

<svg width="48" height="48" viewBox="0 0 48 48" fill="currentColor" xmlns="http://www.w3.org/2000/svg">
<path d="M17.0875 5.52441L10.9663 5.4606" stroke="#3D3D3D" stroke-width="0.75" stroke-linecap="round" stroke-linejoin="round"/>
<path d="M33.9208 2.39999V8.52119" stroke="#3D3D3D" stroke-width="0.75" stroke-linecap="round" stroke-linejoin="round"/>
<path d="M36.9814 5.52441L30.8602 5.4606" stroke="#3D3D3D" stroke-width="0.75" stroke-linecap="round" stroke-linejoin="round"/>
<path d="M10.6185 45.5522H7.93219C7.42189 45.548 6.91745 45.449 6.44769 45.2607C5.97793 45.0725 5.55204 44.7987 5.19435 44.455C4.83665 44.1113 4.55415 43.7045 4.36297 43.2577C4.1718 42.8109 4.07569 42.333 4.08015 41.8511V14.7314C4.08455 13.7666 4.49127 12.8422 5.21224 12.1584C5.9332 11.4747 6.91039 11.0866 7.93219 11.0782H40.0325C41.0601 11.0908 42.0406 11.4874 42.7594 12.181C43.4782 12.8746 43.8766 13.8089 43.8676 14.7793V41.899C43.8766 42.8694 43.4782 43.8036 42.7594 44.4973C42.0406 45.1909 41.0601 45.5874 40.0325 45.6H16.2445" stroke="#3D3D3D" stroke-width="0.75" stroke-linecap="round" stroke-linejoin="round"/>
<path d="M23.2493 17.4436L18.4083 27.1429L27.798 27.1907L23.0057 36.7784" stroke="#3D3D3D" stroke-width="0.75" stroke-linecap="round" stroke-linejoin="round"/>
</svg>

<svg xmlns="http://www.w3.org/2000/svg" width="16" height="16" fill="currentColor" class="si si-Transformator" viewBox="0 0 16 16">
  <path stroke="#3D3D3D" stroke-linecap="round" stroke-linejoin="round" stroke-width=".75" d="m17.088 5.524-6.122-.063M33.92 2.4v6.121m3.061-2.997-6.12-.063M10.619 45.552H7.932a4.1 4.1 0 0 1-1.484-.291 3.9 3.9 0 0 1-1.254-.806 3.7 3.7 0 0 1-.831-1.197 3.5 3.5 0 0 1-.283-1.407v-27.12a3.57 3.57 0 0 1 1.132-2.573 4 4 0 0 1 2.72-1.08h32.1a4 4 0 0 1 2.727 1.103 3.56 3.56 0 0 1 1.109 2.598V41.9c.009.97-.39 1.905-1.109 2.598a4 4 0 0 1-2.727 1.103H16.246"/>
  <path stroke="#3D3D3D" stroke-linecap="round" stroke-linejoin="round" stroke-width=".75" d="m23.25 17.444-4.842 9.699 9.39.048-4.792 9.587"/>
</svg>
